X: 31
T: Ha que ville II
N: Derived from Bus3024-Ha_que_ville_II.krn
C: Antoine Busnoys
%%abc-version 2.0
%%abcx-abcm2ps-target-version 5.9.1 (29 Sep 2008)
%%abc-creator hum2abc beta
%%abcx-conversion-date 2019/02/16 20:26:07
%%abc-edited-by Jesse Rodin
%%abc-edited-by Chris Gage 04-20-2015
%%abcx-initial-encoding-date 2015/05/05/
%%humdrum-veritas 3317246553
%%humdrum-veritas-data 711743426
%%linebreak <none>
%%barnumbers 0
L: 1/4
M: 2/1
Q: 1/2=120
V: 1 clef=treble
V: 2 clef=treble
V: 3 clef=treble
K: F
[V:1] z8 | 
[V:2] z8 | 
[V:3] G4B2A2- | 
[V:1] z8 | 
[V:2] z8 | 
[V:3] AGG4^F2 | 
[V:1] z8 | 
[V:2] G4B2A2- | 
[V:3] G3F/E/D3C | 
[V:1] z8 | 
[V:2] AGG4^F2 | 
[V:3] D2B,2A,4 | 
[V:1] G4B2A2- | 
[V:2] G3F/E/D3C | 
[V:3] G,4z4 | 
[V:1] AGG4^F2 | 
[V:2] D2B,2A,4 | 
[V:3] z4C4 | 
[V:1] [K:clef=treble-8]g3f/e/d3c | 
[V:2] [K:clef=treble-8]G4z4 | 
[V:3] [K:clef=treble-8]B2B4A2 | 
[V:1] d2B2A4 | 
[V:2] z4c4 | 
[V:3] B2G2F2A2 | 
[V:1] G4z4 | 
[V:2] B2B4A2 | 
[V:3] B2d2c4 | 
[V:1] z4c4 | 
[V:2] B2G2F2A2 | 
[V:3] B4z4 | 
[V:1] B2B4A2 | 
[V:2] B2d2c4 | 
[V:3] f4g3f | 
[V:1] B2G2F2A2 | 
[V:2] B4z4 | 
[V:3] d2d4c2 | 
[V:1] B2d2c4 | 
[V:2] f4g3f | 
[V:3] d2B3GA2 | 
[V:1] B4z4 | 
[V:2] d2d4c2 | 
[V:3] B3A/G/F4 | 
[V:1] f4g3f | 
[V:2] d2B3GA2 | 
[V:3] z8 | 
[V:1] d2d4c2 | 
[V:2] B3A/G/F4 | 
[V:3] G4A4 | 
[V:1] d2B3GA2 | 
[V:2] z8 | 
[V:3] B4c4 | 
[V:1] B3A/G/F4 | 
[V:2] G4A4 | 
[V:3] d4c2f2- | 
[V:1] z8 | 
[V:2] B4c4 | 
[V:3] f2d2_e2c2 | 
[V:1] G4A4 | 
[V:2] d4c2f2- | 
[V:3] B4z4 | 
[V:1] B4c4 | 
[V:2] f2d2_e2c2 | 
[V:3] z4A4 | 
[V:1] d4c2f2- | 
[V:2] B4z4 | 
[V:3] G2B2c2d2- | 
[V:1] f2d2_e2c2 | 
[V:2] z4A4 | 
[V:3] d2B2c2A2 | 
[V:1] B4z4 | 
[V:2] G2B2c2d2- | 
[V:3] B3A/G/^F3E | 
[V:1] z4A4 | 
[V:2] d2B2c2A2 | 
[V:3] G4z4 | 
[V:1] G2B2c2d2- | 
[V:2] B3A/G/^F3E | 
[V:3] g4a4 | 
[V:1] d2B2c2A2 | 
[V:2] G4z4 | 
[V:3] b4a4 | 
[V:1] B3A/G/^F3E | 
[V:2] g4a4 | 
[V:3] d2e2fedc | 
[V:1] G4z4 | 
[V:2] b4a4 | 
[V:3] B2d4c2 | 
[V:1] g4a4 | 
[V:2] d2e2fedc | 
[V:3] B2G2z2F2 | 
[V:1] b4a4 | 
[V:2] B2d4c2 | 
[V:3] G4A4 | 
[V:1] d2e2fedc | 
[V:2] B2G2z2F2 | 
[V:3] G2b3aa2- | 
[V:1] B2d4c2 | 
[V:2] G4A4 | 
[V:3] agg3e^f2 | 
[V:1] d8 |]  
[V:2] G8 |]  
[V:3] g8 |]  



